sprites/streets-src/maki/suitcase-11.svg

<?xml version="1.0" encoding="UTF-8" standalone="no"?> <!-- Created with Inkscape (http://www.inkscape.org/) -->  <svg xmlns:dc="http://purl.org/dc/elements/1.1/" xmlns:cc="http://creativecommons.org/ns#" xmlns:rdf="http://www.w3.org/1999/02/22-rdf-syntax-ns#" xmlns:svg="http://www.w3.org/2000/svg" xmlns="http://www.w3.org/2000/svg" xmlns:inkscape="http://www.inkscape.org/namespaces/inkscape" version="1.1" width="11" height="11" id="svg4764" xml:space="preserve"><metadata id="metadata25"><rdf:RDF><cc:Work rdf:about=""><dc:format>image/svg+xml</dc:format><dc:type rdf:resource="http://purl.org/dc/dcmitype/StillImage" /></cc:Work></rdf:RDF></metadata><defs id="defs23" /><path d="m 0,0 0,-1.5 -0.5,-0.5 -4,0 -0.5,0.5 0,1.5 -1.5,0 -0.5,0.5 0,5 0.5,0.5 8,0 0.5,-0.501 0,-4.999 -0.5,-0.5 z m -4,-1 3,0 0,1 -3,0 z m -1,2 1,0 0,4 -1,0 m 5,0 -1,0 0,-4 1,0 z" inkscape:connector-curvature="0" id="path17" style="fill:#454545" /><path d="m 0,0 v -2 h -4 v 2 h -3 v 6 h 10 v -6 h -3 z m -3,-1 h 2 v 1 h -2 v -1 z m -2,2 h 1 v 4 h -1 m 6,0 h -1 v -4 h 1 v 4 z" inkscape:connector-curvature="0" id="path19" style="fill:#454545;display:none" /><path d="m 0,0 h -2 v -1 c 0,-0.553 -0.448,-1 -1,-1 h -2 c -0.552,0 -1,0.447 -1,1 v 1 h -2 c -0.552,0 -1,0.447 -1,1 v 4 c 0,0.553 0.448,1 1,1 h 8 c 0.552,0 1,-0.447 1,-1 v -4 c 0,-0.553 -0.448,-1 -1,-1 z m -6,5 h -1 v -4 h 1 v 4 z m 3,-5 h -2 v -1 h 2 v 1 z m 2,5 h -1 v -4 h 1 v 4 z" inkscape:connector-curvature="0" id="path21" style="fill:#454545;display:none" /></svg>

<?xml version="1.0" encoding="utf-8"?>
<!-- Generator: Adobe Illustrator 17.1.0, SVG Export Plug-In . SVG Version: 6.00 Build 0)  -->
<!DOCTYPE svg PUBLIC "-//W3C//DTD SVG 1.1//EN" "http://www.w3.org/Graphics/SVG/1.1/DTD/svg11.dtd">
<svg version="1.1"
	 id="svg4764" xmlns:cc="http://creativecommons.org/ns#" xmlns:svg="http://www.w3.org/2000/svg" xmlns:inkscape="http://www.inkscape.org/namespaces/inkscape" xmlns:rdf="http://www.w3.org/1999/02/22-rdf-syntax-ns#" xmlns:dc="http://purl.org/dc/elements/1.1/"
	 xmlns="http://www.w3.org/2000/svg" xmlns:xlink="http://www.w3.org/1999/xlink" x="0px" y="0px" viewBox="0 0 11 11"
	 enable-background="new 0 0 11 11" xml:space="preserve">
<path id="path17" inkscape:connector-curvature="0" d="M8.5,3.1V1.3L7.9,0.7H3L2.4,1.3v1.8H0.6L0,3.7v6l0.6,0.6h9.7l0.6-0.6v-6
	l-0.6-0.6H8.5z M3.6,1.9h3.6v1.2H3.6V1.9z M2.4,4.3h1.2v4.8H2.4 M8.5,9.1H7.2V4.3h1.2V9.1z"/>
<path id="path19" inkscape:connector-curvature="0" display="none" fill="#454545" d="M0,0v-2h-4v2h-3v6H3V0H0z M-3-1h2v1h-2V-1z
	 M-5,1h1v4h-1 M1,5H0V1h1V5z"/>
<path id="path21" inkscape:connector-curvature="0" display="none" fill="#454545" d="M0,0h-2v-1c0-0.6-0.4-1-1-1h-2
	c-0.6,0-1,0.4-1,1v1h-2c-0.6,0-1,0.4-1,1v4c0,0.6,0.4,1,1,1h8c0.6,0,1-0.4,1-1V1C1,0.4,0.6,0,0,0z M-6,5h-1V1h1V5z M-3,0h-2v-1h2V0z
	 M-1,5h-1V1h1V5z"/>
</svg>
